X:892
T:Avant de s'en aller
R:Bourr\'ee
O:France
M:2/4
C:Pierre Imbert
K:G
F4G2F2|A6B2|c6d2|A3B cBAG|\
F4A2F2|A6B2|c6d2|A8:||:\
FEFG AGAB|c2B2A4|1 FEFG AGAB|c2A2 B2G2:|2\
FEFG A2F2|G8:|
